files/resources/svgs/general/o-arrow-up-on-square.svg

<svg width="24" height="24" viewBox="0 0 24 24" fill="none" xmlns="http://www.w3.org/2000/svg">
<path d="M9 8.25H7.5C6.25736 8.25 5.25 9.25736 5.25 10.5V19.5C5.25 20.7426 6.25736 21.75 7.5 21.75H16.5C17.7426 21.75 18.75 20.7426 18.75 19.5V10.5C18.75 9.25736 17.7426 8.25 16.5 8.25H15M15 5.25L12 2.25M12 2.25L9 5.25M12 2.25L12 15" stroke="#0F172A" stroke-width="1.5" stroke-linecap="round" stroke-linejoin="round"/>
</svg>

<svg xmlns="http://www.w3.org/2000/svg" fill="none" viewBox="0 0 24 24" stroke-width="1.5" stroke="currentColor" aria-hidden="true">
  <path stroke-linecap="round" stroke-linejoin="round" d="M9 8.25H7.5a2.25 2.25 0 00-2.25 2.25v9a2.25 2.25 0 002.25 2.25h9a2.25 2.25 0 002.25-2.25v-9a2.25 2.25 0 00-2.25-2.25H15m0-3l-3-3m0 0l-3 3m3-3V15"/>
</svg>
